X: 27371
T: Mo Ceol Sibh A Laochra
R: polka
M: 2/4
K: Adorian
|:A/G/|EA AB|c2 Ac|B/c/B/A/ GB|dB G>F|
EA- AB|c2 d2|e/f/g dB|BA A:|
d|ea ag|ef g>e|dB G>B|AG E/G/E/D/|
ea- ag|ef ga|b>a gb|a2 ab|
c'b/c'/ ag|ef g>e|dB gd|BA G2|
EA- AB|c2 d2|e/f/g dB|BA A||

